X:131
T: ICH SASS UND SPANN VOR MEINER THUER
N: B0163
O: Europa, Mitteleuropa, Deutschland
R: Ballade, Romanze
M: 4/4
L: 1/8
K: C
GAB | c2E2F2D2 | C2z3
CDE | F2D2E3C | EDD2z
GGF | E3ED3E | C2z3
CDE | DGGBB3A | A2G2z
GAB | c2G2d2G2 | e4z
cBA | G2E2GFD2 | C4z

